!!!!SEGMENT: pl-wumfc--n8602--002_moniuszko-stanislaw--klebuszek.krn
!!!cenid: 18xx:4164
!!!COM: Moniuszko, Stanisław
!!!COM-rismID: pe30008351
!!!CDT: 1819/05/05-1872/06/04
!!!CNT: Polish
!!!OTL: Kłębuszek
!!!PDT: 1884
!!!AGN:
!!!YEC: Copyright 2022 Narodowy Instytut Fryderyka Chopina (https://polishscores.org)
!!!YEM: License CC-BY-4.0 (https://creativecommons.org/licenses/by/4.0)
!!!SMS-siglum: PL-Wumfc
!!!SMS-shelfmark: N8602
!!!SMS-variant:
!!!SMS-altvar:
!!!SMS-shelfwork: 002 W
!!!NIFC-rismSourceID: 1001166100
!!!NIFC-rismChildID: 1001166100
!!!NIFC-islandoraID: pl-wumfc:7681
!!!URL-pdf-islandora: https://repozytorium.nifc.pl/islandora/object/pl-wumfc%3A7681/datastream/PDF/view
!!!URL-scan: https://polish.musicsources.pl/pl/lokalizacje/galeria/druki-muzyczne/12679/2 @EN{Scan on Polish Music Sources Website} @PL{Skany w portalu Dziedzictwo Muzyki Polskiej w otwartym dostępie}
!!!IIIF:
!!!ONB-nifc: UWAGA: w zbiorze 1. Szkice charakterystyczne (s. 2) i 2. Kłębuszek (s. 3)
!!!AIN: 1 canto 2 piano
!!!key: A
**kern	**kern	**dynam	**kern	**text	**text
*part3	*part2	*	*part1	*	*
*staff3	*staff2	*	*staff1	*	*
*I"FORTEPIAN.	*I"FORTEPIAN.	*	*I"ŚPIEW.	*	*
*	*I'pf	*	*I'V	*	*
*Ipiano	*Ipiano	*	*Icanto	*	*
*ICklav	*ICklav	*	*ICvox	*	*
*IGacmp	*IGacmp	*	*IGsolo	*	*
*clefF4	*clefG2	*	*clefG2	*	*
*k[f#c#g#]	*k[f#c#g#]	*	*k[f#c#g#]	*	*
*A:	*A:	*	*A:	*	*
*M3/4	*M3/4	*	*M3/4	*	*
*>[A,B,B,C]	*>[A,B,B,C]	*	*>[A,B,B,C]	*	*
=1	=1	=1	=1	=1	=1
*>A	*>A	*>A	*>A	*>A	*>A
*	*^	*	*	*	*
!	!	!	!LO:DY:b:rj	!	!	!
4AA/	(8.e/L	4c#\	pp	2.r	.	.
.	16a/Jk	.	.	.	.	.
4AA/	2f#/)	2d\	.	.	.	.
4AA/	.	.	.	.	.	.
=2	=2	=2	=2	=2	=2	=2
*^	*	*	*	*	*	*
4A/	4AA\	(8.e/L	4c#\	.	2.r	.	.
.	.	16a/Jk	.	.	.	.	.
(8G#/L	4AA\	2f#/)	2d\	.	.	.	.
8F#/	.	.	.	.	.	.	.
8G#/	4AA\	.	.	.	.	.	.
8E/J	.	.	.	.	.	.	.
*	*	*v	*v	*	*	*	*
=3!|:	=3!|:	=3!|:	=3!|:	=3!|:	=3!|:	=3!|:
*>B	*>B	*>B	*>B	*>B	*>B	*>B
4A/)	4AA\	8eL 8c#/	.	2.r	.	.
.	.	8a/J	.	.	.	.
4F#/	4AA\	4b 4d/	.	.	.	.
4G#/	4AA\	4dd 4b 4d/	.	.	.	.
*v	*v	*	*	*	*	*
=4	=4	=4	=4	=4	=4
8.AL 8.AA\	(8.cc#\L	f	2.r	.	.
16B\Jk	16dd\Jk	.	.	.	.
8c#\	8ee\)	.	.	.	.
8r	8r	.	.	.	.
!	!	!LO:DY:b:rj	!	!	!
4B 4E\	4g# 4d/	p	.	.	.
!!LO:LB:g=original
=5	=5	=5	=5	=5	=5
4A 4E 4AA\	4a 4c#/	.	8a/	Mój	My-
.	.	.	8g#/	kłę-	-śli
4E 4AA/	4e 4c#/	.	4.a/	-busz-	mo-
4E 4AA/	4e 4c#/	.	.	.	.
.	.	.	8e/	-ku	-je
=6	=6	=6	=6	=6	=6
*	*^	*	*	*	*
4E 4AA/	8f#/L	4d\	.	8f#/	po-	po-
.	8e/J	.	.	8e/	-plą-	-plą-
4E 4AA/	4f#/	4d\	.	4f#/	-ta-	-ta-
4E 4AA/	4g#/	4d\	.	4g#/	-ny.	-ne
=7	=7	=7	=7	=7	=7	=7
4E 4AA/	8a/L	4c#\	.	8a/	I-	Nie
.	8g#/J	.	.	8b/	-grał	przy-
4E 4AA/	4a/	4c#\	.	4.cc#\	z to-	-ja-
4E 4AA/	4e/	4c#\	.	.	.	.
.	.	.	.	8e/	-bą	-zną
!!LO:LB:g=original
=8	=8	=8	=8	=8	=8	=8
.	.	.	.	8qg#/	.	.
4E 4AA/	4e/	8d\L	.	8f#/	ktoś	rę-
.	.	8c#\J	.	8e/	nie-	-ką
4E 4AA/	4f#/	4d\	.	4f#/	-ła-	lo-
[4E 4AA/	((4g#/	4d\	.	4g#/	-dnie	-su,
*	*v	*v	*	*	*	*
=9	=9	=9	=9	=9	=9
*^	*	*	*	*	*
8E/]	2.AA\	8a 8c#/))	.	8a/	Do	Wy-
8r	.	8r	.	8cc#\	rąk	-szły
4E/	.	4a 4c#/	.	4.ee\	wziął	mę-
[4E/	.	(>4a 4c#/	.	.	.	.
.	.	.	.	8a/	nie-	-tne,
=10	=10	=10	=10	=10	=10	=10
8E/]	2.AA\	8g# 8c#/)	.	8g#/	-po-	po-
8r	.	8r	.	8cc#\	-wo-	-wi-
4E/	.	4g# 4c#/	.	4.ee^\	-ła-	-kła-
4E/	.	4g# 4c#/	.	.	.	.
.	.	.	.	8g#/	-ny	-ne
*v	*v	*	*	*	*	*
!!LO:PB:g=original
=11	=11	=11	=11	=11	=11
*	*^	*	*	*	*
4D\	4f# 4d/	4ryy	.	8f#/	I	Z wal-
.	.	.	.	8dd\	po-	-ki
4r	4r	4ryy	.	8cc#\	-wi-	ży-
.	.	.	.	8b\	-kłał	-cia
4F# 4BB\	8a/L	4d\	.	8a/	pa-	i
.	8g#/J	.	.	8g#/	-sma	cha-
=12	=12	=12	=12	=12	=12	=12
*^	*	*	*	*	*	*
!	!	!	!LO:TUP:b:problem:klamra łukowa	!	!	!	!
(4A/	(4E\	4f#/	12d\L	.	4f#/	zdra-	-o-
.	.	.	12c#\	.	.	.	.
.	.	.	12B\J	.	.	.	.
8G#/)	8E\)	8e/	8e\	.	8e/	-dnie	-su
8r	8ryy	8r	8ryy	.	8r	.	.
8E 8EE/	4ryy	8e/	4ryy	.	4r	.	.
8r	.	8r	.	.	.	.	.
*v	*v	*	*	*	*	*	*
*	*v	*v	*	*	*	*
=13	=13	=13	=13	=13	=13
4E 4AA/	4cc# 4e 4c#^/	.	4.cc#^\	By-	W two-
!	!LO:TX:b:t=cres-cen-do.:ext=ud:problem:text with extention lines	!	!	!	!
4E 4AA/	4e 4c#/	<	.	.	.
.	.	.	8b\	-łą	-je
4E 4AA/	4e 4c#/	.	8a/	w to-	rę-
.	.	.	8g#/	-bie	-ce
!!LO:LB:g=original
=14	=14	=14	=14	=14	=14
4G# 4AA/	8f#L 8d^/	.	8f#/	da-	myśl
.	8f#/J	.	8f#/	-wniej	i
4G# 4AA/	4b 4e 4d/	.	4b\	by-	wą-
4Gn 4AA#X/	4cc# 4e 4c#/	.	4cc#\	-ła	-tek
=15	=15	=15	=15	=15	=15
4B 4F# 4BB\	4dd 4d^/	.	4.dd^\	Je-	Mój
4F# 4BB\	4f# 4d/	.	.	.	.
.	.	.	8cc#\	-dna	a-
4B 4BB\	4f# 4d/	[[	8b\	ni-	-nie-
.	.	.	8a/	-tka	-le
=16	=16	=16	=16	=16	=16
*^	*^	*	*	*	*
8B/L	4E\	8g#/L	4d\	.	8g#/	szcze-	dziś
8A/J	.	8a/J	.	.	8a/	-ro-	po-
4G#/	4E\	4b/	4d\	.	4b\	-zło-	-wie-
4E/	4E\	4b#X 4g#/	4d\	.	4b#X\	-ta	-rzę
*v	*v	*	*	*	*	*	*
*	*v	*v	*	*	*	*
!!LO:LB:g=original
=17	=17	=17	=17	=17	=17
2A\	4r	f	8cc#\	Lecz	Znaj-
.	.	.	8dd\	się	-dziesz
.	4cc# 4a 4e 4c#/	.	4.ee\	te-	ko-
4E\	4g# 4d/	.	.	.	.
.	.	.	8g#/	-raz	-niec
=18	=18	=18	=18	=18	=18
2F#\	4r	.	8a/	gdzieś	i
.	.	.	8b\	u-	po-
.	4a 4f# 4c#/	.	4.cc#\	-kry-	-czą-
4D#X\	[4a 4f# 4B#X/	.	.	.	.
.	.	.	8a/	-ła	-tek
=19	=19	=19	=19	=19	=19
4E\	4a] 4e 4c#/	.	8e/	Kto	Tyl-
.	.	.	8a/	ją	-ko
4E\	4b 4f# 4d/	.	4b\	znaj-	szu-
4E\	4dd 4g# 4e/	.	4dd\	-dzie	-kaj
!!LO:LB:g=original
=20	=20	=20	=20	=20	=20
*	*^	*	*	*	*
4A\	8cc#/L	4a 4e\	.	2cc#;\	kto	szcze-
.	8ee/J	.	.	.	.	.
2A;\	2ee 2cc#; 2e/	2ryy	.	.	.	.
.	.	.	.	4a/	ją	-rze
*	*v	*v	*	*	*	*
=21	=21	=21	=21	=21	=21
*	*	*	*Xbrackettup	*	*
4r	4r	.	12e/L	znaj-	tyl-
.	.	.	12a/J	.	.
.	.	.	12cc#\	-dzie	-ko
4E\	4cc# 4a 4e 4c#/	.	4.ee;\	kto	szu-
4E 4EE;/	4b 4e 4d;/	.	.	.	.
.	.	.	8g#/	roz-	-kaj
=22	=22	=22	=22	=22	=22
*	*^	*	*	*	*
4E 4AA/	8e/L	4c#\	.	4b\	-mo-	szcze-
.	8a/J	.	.	.	.	.
2E 2AA^/	2a 2c#^>/	2ryy	.	4a/	-ta.	-rze.
.	.	.	.	4r	.	.
=23	=23	=23	=23	=23	=23	=23
4E 4AA/	8e/L	4c#\	.	2.r	.	.
.	8a/J	.	.	.	.	.
2E 2AA/	2a/	2c#\	.	.	.	.
*	*v	*v	*	*	*	*
=24:|!	=24:|!	=24:|!	=24:|!	=24:|!	=24:|!
*>C	*>C	*>C	*>C	*>C	*>C
8E 8AA/	8A/	.	2.r	.	.
8r	8r	.	.	.	.
4AA 4AAA/	4aa 4ee 4cc# 4a\	sf	.	.	.
4r	4r	.	.	.	.
==	==	==	==	==	==
*-	*-	*-	*-	*-	*-
!!!system-decoration: s1{(s2,s3)}
!!!RDF**kern: > = above
!!!RDF**kern: < = below
!!!ENC: Andrzej Gręziak
!!!END: 2022-09-08
!!!ENC: Katarzyna Serwa
!!!END: 2022-10-20
